src/lib/packages/icons/src/assets/line/bookmark-star.svg

<svg width="24" height="24" viewBox="0 0 24 24" fill="none" xmlns="http://www.w3.org/2000/svg">
<path d="M16 2.25H8C5.582 2.25 4.25 3.582 4.25 6V21C4.25 21.268 4.39302 21.5149 4.62402 21.6479C4.74002 21.716 4.87 21.75 5 21.75C5.128 21.75 5.25707 21.717 5.37207 21.651L12 17.863L18.6279 21.65C18.8599 21.783 19.146 21.782 19.376 21.647C19.607 21.513 19.75 21.266 19.75 20.999V5.99902C19.75 3.58202 18.418 2.25 16 2.25ZM18.25 19.707L12.3721 16.349C12.1421 16.217 11.8579 16.217 11.6279 16.349L5.75 19.708V6C5.75 4.423 6.423 3.75 8 3.75H16C17.577 3.75 18.25 4.423 18.25 6V19.707ZM15.271 8.43994L13.7119 8.21802L13.043 6.89001C12.844 6.49401 12.443 6.24902 11.999 6.24902C11.555 6.24902 11.1541 6.49401 10.9551 6.89001L10.2859 8.21802L8.72705 8.43994C8.29005 8.50194 7.93698 8.80004 7.80298 9.21704C7.66898 9.63104 7.78212 10.0751 8.09912 10.3781L9.21606 11.443L8.96289 12.891C8.88589 13.326 9.06097 13.759 9.41797 14.021C9.77697 14.287 10.2509 14.324 10.6479 14.119L11.998 13.425L13.3479 14.119C13.5189 14.207 13.703 14.251 13.887 14.251C14.131 14.251 14.3731 14.174 14.5791 14.022C14.9351 13.759 15.11 13.326 15.033 12.892L14.78 11.443L15.8979 10.377C16.2129 10.076 16.3271 9.63104 16.1931 9.21704C16.0621 8.80004 15.708 8.50194 15.271 8.43994ZM13.603 10.495C13.331 10.756 13.207 11.133 13.271 11.505L13.4409 12.479L12.5259 12.0081C12.1949 11.8371 11.8021 11.839 11.4771 12.007L10.5601 12.479L10.731 11.5031C10.794 11.1321 10.67 10.755 10.397 10.493L9.68896 9.81799L10.6831 9.67603C11.0511 9.62403 11.371 9.39501 11.541 9.06201L12 8.151L12.4609 9.06604C12.6299 9.39604 12.9489 9.62403 13.3169 9.67603L14.311 9.81799L13.603 10.495Z" fill="currentColor"/>
</svg>

<svg xmlns="http://www.w3.org/2000/svg" width="24" height="24" fill="none"><path fill="currentColor" d="M16 2.25H8C5.582 2.25 4.25 3.582 4.25 6v15a.747.747 0 0 0 .75.75.749.749 0 0 0 .372-.099L12 17.863l6.628 3.787a.75.75 0 0 0 1.122-.651v-15c0-2.417-1.332-3.749-3.75-3.749Zm2.25 17.457-5.878-3.358a.749.749 0 0 0-.744 0L5.75 19.708V6c0-1.577.673-2.25 2.25-2.25h8c1.577 0 2.25.673 2.25 2.25v13.707ZM15.271 8.44l-1.56-.222-.668-1.328a1.162 1.162 0 0 0-1.044-.641c-.444 0-.845.245-1.044.641l-.67 1.328-1.558.222c-.437.062-.79.36-.924.777a1.12 1.12 0 0 0 .296 1.161l1.117 1.065-.253 1.448c-.077.435.098.868.455 1.13.359.266.833.303 1.23.098l1.35-.694 1.35.694a1.163 1.163 0 0 0 1.231-.097 1.15 1.15 0 0 0 .454-1.13l-.253-1.449 1.118-1.066c.315-.301.43-.746.295-1.16a1.122 1.122 0 0 0-.922-.777Zm-1.668 2.055a1.131 1.131 0 0 0-.332 1.01l.17.974-.915-.47a1.145 1.145 0 0 0-1.049-.002l-.917.472.171-.976a1.134 1.134 0 0 0-.334-1.01l-.708-.675.994-.142c.368-.052.688-.281.858-.614L12 8.151l.46.915c.17.33.489.558.857.61l.994.142-.708.677Z"/></svg>
